X:995
L:1/8
M:4/4
K:D
 (AG) | FGEF DFAd | cdBc Aceg | fgef decd | BcAB GBAG | FGEF DFAd | cdBc Aceg | fage dfec | 
 d2 d2 d2 :: (de) | fedf edce | dcBd cBAc | BAGB AGFA | GFED DCB,A, | FGEF DFAd | cdBc Aceg | 
 fafd egec | d2 d2 d2 :|

